lib/functional/time/calendar-check.svg

<svg xmlns="http://www.w3.org/2000/svg" fill="none" stroke="currentColor" aria-hidden="true" viewBox="0 0 32 32"><g id="Icon-CalendarCheck"><g clip-path="url(#clip0_11_1415)"><g id="size=md (32px)"><g id="CalendarCheck"><path id="Vector" stroke-linecap="round" stroke-linejoin="round" stroke-width="2" d="M26 5H6C5.44772 5 5 5.44772 5 6V26C5 26.5523 5.44772 27 6 27H26C26.5523 27 27 26.5523 27 26V6C27 5.44772 26.5523 5 26 5Z"/><path id="Vector_2" stroke-linecap="round" stroke-linejoin="round" stroke-width="2" d="M22 3V7"/><path id="Vector_3" stroke-linecap="round" stroke-linejoin="round" stroke-width="2" d="M10 3V7"/><path id="Vector_4" stroke-linecap="round" stroke-linejoin="round" stroke-width="2" d="M5 11H27"/><path id="Vector_5" stroke-linecap="round" stroke-linejoin="round" stroke-width="2" d="M20.5 16L14.6625 21.5L11.5 18.5"/></g></g></g></g><defs><clipPath id="clip0_11_1415"><rect width="32" height="32" fill="white" rx="5"/></clipPath></defs></svg>

<svg xmlns="http://www.w3.org/2000/svg" fill="none" stroke="currentColor" aria-hidden="true" viewBox="0 0 32 32"><path stroke-linecap="round" stroke-linejoin="round" stroke-width="2" d="M26 5H6a1 1 0 0 0-1 1v20a1 1 0 0 0 1 1h20a1 1 0 0 0 1-1V6a1 1 0 0 0-1-1Zm-4-2v4M10 3v4m-5 4h22"/><path stroke-linecap="round" stroke-linejoin="round" stroke-width="2" d="m20.5 16-5.838 5.5-3.162-3"/></svg>
